src/icons/outline/ai/artificial-intelligence.svg

<svg width="24" height="24" viewBox="0 0 24 24" fill="none" xmlns="http://www.w3.org/2000/svg">
<g clip-path="url(#clip0_4554_416)">
<path fill-rule="evenodd" clip-rule="evenodd" d="M17.9922 13C18.4318 13 18.8014 13.2799 18.9414 13.6797L19.4717 15.2598C19.6716 15.8598 20.1415 16.3303 20.7412 16.5303L22.3203 17.0596C22.7301 17.1896 23 17.58 23 18C23 18.42 22.7301 18.8104 22.3203 18.9404L20.7412 19.4697C20.1415 19.6697 19.6816 20.1402 19.4717 20.7402L18.9414 22.3203C18.8014 22.7201 18.4318 23 17.9922 23C17.5526 23 17.183 22.7201 17.043 22.3203L16.5127 20.7402C16.3128 20.1402 15.8429 19.6697 15.2432 19.4697L13.6641 18.9404C13.2543 18.8104 12.9844 18.42 12.9844 18C12.9844 17.58 13.2543 17.1896 13.6641 17.0596L15.2432 16.5303C15.8429 16.3303 16.3028 15.8598 16.5127 15.2598L17.043 13.6797C17.183 13.2799 17.5625 13 17.9922 13ZM17.9424 15.7305C17.5825 16.7902 16.7529 17.6102 15.7236 17.9502L15.5732 18L15.7334 18.0498C16.7729 18.3898 17.6123 19.2203 17.9521 20.2803L18.002 20.4199L18.0527 20.2695C18.4127 19.2098 19.2421 18.3897 20.2715 18.0498L20.4209 18L20.2617 17.9502C19.2222 17.6102 18.3818 16.7797 18.042 15.7197L17.9922 15.5801L17.9424 15.7305Z" fill="#3C3B44"/>
<path fill-rule="evenodd" clip-rule="evenodd" d="M9.99609 1C10.4058 1.00008 10.7553 1.27045 10.8652 1.65039L11.8447 5.07031C12.2646 6.56021 13.4344 7.73017 14.9336 8.16016L18.3418 9.12988C18.7316 9.23988 18.9922 9.60023 18.9922 9.99023C18.9921 10.3801 18.7215 10.7396 18.3418 10.8496L14.9336 11.8203C13.4443 12.2503 12.2745 13.4202 11.8447 14.9102L10.8652 18.3301C10.7553 18.7099 10.4058 18.9804 9.99609 18.9805C9.58628 18.9805 9.23593 18.7101 9.12598 18.3301L8.14648 14.9102C7.72672 13.4203 6.55768 12.2504 5.05859 11.8203L1.64941 10.8496C1.25988 10.7395 1.0001 10.38 1 9.99023C1 9.60032 1.26971 9.23996 1.64941 9.12988L5.05859 8.16016C6.54763 7.73011 7.71663 6.56002 8.14648 5.07031L9.12598 1.65039C9.23593 1.27039 9.59628 1 9.99609 1ZM9.5957 5.48047C9.02583 7.45022 7.45646 9.02966 5.47754 9.59961L4.08887 10L5.46777 10.3896C7.46678 10.9596 9.00614 12.4999 9.58594 14.5098L9.98633 15.9199L10.3857 14.5098C10.9555 12.5399 12.5249 10.9596 14.5039 10.3896L15.8936 9.99023L14.5137 9.59961C12.5148 9.02958 10.9753 7.49019 10.3955 5.48047L9.99609 4.07031L9.5957 5.48047Z" fill="#3C3B44"/>
</g>
<defs>
<clipPath id="clip0_4554_416">
<rect width="24" height="24" fill="white"/>
</clipPath>
</defs>
</svg>

<svg xmlns="http://www.w3.org/2000/svg" width="24" height="24" fill="none" viewBox="0 0 24 24"><g fill="currentColor" fill-rule="evenodd" clip-path="url(#a)" clip-rule="evenodd"><path d="M17.992 13c.44 0 .81.28.95.68l.53 1.58c.2.6.67 1.07 1.27 1.27l1.578.53c.41.13.68.52.68.94s-.27.81-.68.94l-1.579.53c-.6.2-1.06.67-1.27 1.27l-.53 1.58a1.003 1.003 0 0 1-1.898 0l-.53-1.58c-.2-.6-.67-1.07-1.27-1.27l-1.579-.53a.99.99 0 0 1-.68-.94c0-.42.27-.81.68-.94l1.58-.53a2.03 2.03 0 0 0 1.269-1.27l.53-1.58c.14-.4.52-.68.95-.68m-.05 2.73a3.53 3.53 0 0 1-2.218 2.22l-.15.05.16.05a3.48 3.48 0 0 1 2.218 2.23l.05.14.05-.15a3.53 3.53 0 0 1 2.22-2.22l.149-.05-.16-.05a3.48 3.48 0 0 1-2.219-2.23l-.05-.14zM9.996 1c.41 0 .76.27.87.65l.979 3.42a4.49 4.49 0 0 0 3.089 3.09l3.408.97c.39.11.65.47.65.86s-.27.75-.65.86l-3.408.97c-1.49.43-2.66 1.6-3.09 3.09l-.979 3.42c-.11.38-.46.65-.869.65-.41 0-.76-.27-.87-.65l-.98-3.42a4.49 4.49 0 0 0-3.087-3.09l-3.41-.97A.9.9 0 0 1 1 9.99c0-.39.27-.75.65-.86l3.409-.97a4.53 4.53 0 0 0 3.087-3.09l.98-3.42c.11-.38.47-.65.87-.65m-.4 4.48A6.07 6.07 0 0 1 5.478 9.6l-1.39.4 1.38.39a5.97 5.97 0 0 1 4.118 4.12l.4 1.41.4-1.41a6.07 6.07 0 0 1 4.118-4.12l1.39-.4-1.38-.39a5.97 5.97 0 0 1-4.118-4.12l-.4-1.41z"/></g><defs><clipPath id="a"><path fill="currentColor" d="M0 0h24v24H0z"/></clipPath></defs></svg>
